X: 12383
T: Fandango, The
R: jig
M: 6/8
K: Dmajor
(3ABc|:d2 d dcd|B2 G FGA|d2 d d2 e|fda f2 d|
d2 d dcd|B2 G FGA|d2 d d2 g|e2 a f2 d:|
aba f2 d|AFd AFd|aba f2 d|BGd BGd|
aba f2 d|B2 G FGA|B2 d e2 c|1 d3 dfg:|2 d3 d2||

